X:0336
M:2/4
L:1/8
Q:1/4=140
K:D
d2  fa          |d2   gb      |afed       | ce     AF |\
d2 (f/g/a)      |d2  (g/a/b)  |afed       |(c/d/e) AG |\
d2  d'd         |c'd bd       |ad e/d/c/e/| gecA      |\
d2  d'd         |c'dbd        |ad e/d/c/d/| gecA      |\

